proprietary/assets/icons/gebouwen/school.svg

<svg height="64" viewBox="0 0 64 64" width="64" xmlns="http://www.w3.org/2000/svg"><path d="m0 0h64v64h-64z" fill="none"/><path d="m57.4434 23.2119-10.8457-15.3652c-.375-.5308-.9844-.8467-1.6338-.8467h-25.9278c-.6494 0-1.2588.3159-1.6338.8467l-10.8457 15.3652c-.2338.3311.003.7881.4082.7881h7.0767l15.9585-13c1.1613-.9678 2.7742-.9355 4 0l15.958 13h7.0772c.4052 0 .642-.457.4082-.7881z"/><path d="m32 13.6797-16.4692 13.3203h-5.5308v29h44v-29h-5.5308zm-7 36.3203h-8v-5h8zm0-8h-8v-9h8zm11 8h-8v-5h8zm0-8h-8v-9h8zm-4-13.8c-2.3195 0-4.2-1.8806-4.2-4.2 0-2.3195 1.8805-4.2 4.2-4.2s4.2 1.8805 4.2 4.2c0 2.3194-1.8805 4.2-4.2 4.2zm15 21.8h-8v-5h8zm0-8h-8v-9h8z"/></svg>

<?xml version="1.0" encoding="utf-8"?>
<!-- Generator: Adobe Illustrator 17.1.0, SVG Export Plug-In . SVG Version: 6.00 Build 0)  -->
<svg version="1.2" baseProfile="tiny" xmlns="http://www.w3.org/2000/svg" xmlns:xlink="http://www.w3.org/1999/xlink" x="0px"
	 y="0px" width="64px" height="64px" viewBox="0 0 64 64" xml:space="preserve">
<g id="_x36_4px_Boxes">
	<rect fill="none" width="64" height="64"/>
</g>
<g id="Production">
	<g>
		<path d="M57.4434,23.2119L46.5977,7.8467C46.2227,7.3159,45.6133,7,44.9639,7H19.0361c-0.6494,0-1.2588,0.3159-1.6338,0.8467
			L6.5566,23.2119C6.3228,23.543,6.5596,24,6.9648,24h7.0767L30,11c1.1613-0.9678,2.7742-0.9355,4,0l15.958,13h7.0772
			C57.4404,24,57.6772,23.543,57.4434,23.2119z"/>
		<path d="M32,13.6797L15.5308,27H10v29h44V27h-5.5308L32,13.6797z M25,50h-8v-5h8V50z M25,42h-8v-9h8V42z M36,50h-8v-5h8V50z
			 M36,42h-8v-9h8V42z M32,28.2c-2.3195,0-4.2-1.8806-4.2-4.2c0-2.3195,1.8805-4.2,4.2-4.2c2.3195,0,4.2,1.8805,4.2,4.2
			C36.2,26.3194,34.3195,28.2,32,28.2z M47,50h-8v-5h8V50z M47,42h-8v-9h8V42z"/>
	</g>
</g>
</svg>
